X: 112
T: Mulberry Garden
M:6/8
L:1/8
Q:160
S:Playford
O:Manuscript
A:English
K:F
A| d2 e fcA| GAF c2 A|d2 e f d2| a3 a2 A|d2 e dcA|GAF c2 A|d2 e f d2| A3 A2:|
|: a|bag a2 e|f d2 g2 a|efg fed|^c3 c2|B A G2 F2 E|D d2 ^c2 e|eAf e2 d| d3 d2:|

